X: 162260
T: Pride Of The Bronx
S: Johnny Cronin - Joe Burke (Shanachie 29005, 1977)
M: 4/4
L: 1/8
R: reel
Q: 1/4=180
K: D
AF F2 AFBF | AF F2 GFEB | AF F2 ABde  | fe d2 e2 dB |
AF F2 AFBF | AF F2 GFEB | AF F2 ABde  | fedf e2 de ||
fa a2 fb b2 | fa a2 afde | fa a2 fb b2 | afdf e2 de |
fa a2 fb b2 | afde fedB | dBAF ABde |fd d2 e2 de ||
